svg/u1f64a.svg

<svg viewBox="0 0 128 128" xmlns="http://www.w3.org/2000/svg">
  <path d="M107.35,61.36c0,23.37-10.81,42.28-42.76,42c-35.15-0.3-43.32-15.47-43.52-40.33 c-0.19-23.37,13.44-44.79,42.56-44.79C90.97,18.24,107.35,37.99,107.35,61.36z" fill="#B6885A"/>
  <path d="M64.4,44.12c7.46-0.23,15.54-10.47,24.5-2.28c8.22,7.51,1.72,14.46,1.93,21.56 c0.17,5.88,5.97,10.14,1.32,19.07c-3.75,7.2-14.41,12.31-27.19,12.07c-16.44-0.3-26.5-5.17-29.24-13.29 c-2.67-7.91,3.07-12.28,2.76-18.36c-0.3-6.09-6.78-15.39,1.65-21.51C51.59,33.06,56.48,44.36,64.4,44.12z" fill="#FFCD88"/>
  <path d="M55.75,57.5c0.45,4.45-2.01,7.43-5,7.73c-2.99,0.3-5.71-2.37-6.08-5.97 c-0.37-3.6,1.12-7.11,4.92-7.41C52.59,51.61,55.32,53.28,55.75,57.5z" fill="#393531"/>
  <path d="M82.23,57.99c-0.13,5.12-3.3,6.76-6.13,6.55s-4.72-3.38-4.47-6.75c0.25-3.38,2.51-6.58,6.09-6.24 C80.55,51.82,82.33,54.03,82.23,57.99z" fill="#393531"/>
  <path d="M64.1,64.29c3.88,0.08,5.3,0.08,5.17,2.02c-0.08,1.22-2.59,3.65-5.02,3.69 c-2.05,0.04-5.1-2.02-5.29-3.8C58.75,64.18,60.29,64.21,64.1,64.29z" fill="#393531"/>
  <path d="M104.92,51.82c0,0,14-0.71,13.8,12.68c-0.2,13.39-12.17,15.12-14.81,15.02 C101.27,79.42,104.92,51.82,104.92,51.82z" fill="#B6885A"/>
  <path d="M23.05,51.21c0,0-13.8-0.41-14.3,13.09s12.38,15.42,15.62,15.83C27.61,80.53,23.05,51.21,23.05,51.21 z" fill="#B6885A"/>
  <path d="M22.23,74.65c0.36-0.13-0.26-4.64-0.51-9.03c-0.23-4.13-0.09-8.15-0.2-8.32 c-0.41-0.61-8.12-0.3-8.12,7.91S21.42,74.95,22.23,74.65z" fill="#FFCD88"/>
  <path d="M105.42,56.89c0.54-0.36,8.88-0.2,8.62,8.12c-0.23,7.33-7.61,9.59-8.52,8.98 c-0.47-0.32,0.02-3.55,0.1-8.07C105.7,61.73,105.13,57.09,105.42,56.89z" fill="#FFCD88"/>
  <path d="M30.76,91.79c5.91-4.36,8.75-7.15,12.99-13.7C48,71.5,54.27,70.06,56.9,70.26 c2.64,0.2,2.76,2.36,2.76,2.36l-0.2,2.64l7.81-1.52c0,0,2.23-2.43,6.39-1.62c4.16,0.81,6.9,2.64,11.06,7.81 c4.16,5.17,7,9.23,8.72,10.45c1.72,1.22,12.33,6.51,15.62,8.52c4.16,2.54,7.3,7.3,3.86,13.39c-3.08,5.44-12.99,4.77-14.1,4.46 s-10.86-5.38-14.3-9.03c-3.45-3.65-8.72-6.39-13.09-7.2s-11.87-0.51-14.51,0c-2.64,0.51-9.33,3.55-12.88,6.49 c-3.55,2.94-7.61,7-9.84,8.01c-2.23,1.01-9.33,2.84-12.38,2.03s-8.2-4.36-8.12-10.15c0.1-7,5.68-8.83,9.54-10.55 C27.1,94.63,28.83,93.21,30.76,91.79z" fill="#B6885B"/>
  <path d="M55.69,79.31c0.45,1.67,6.1-3.2,9.13-3.42c5.1-0.38,8.85,1.6,9.36,7.99 c0.51,6.39-2.64,11.97-11.87,13.8s-11.44,2.38-15.6,5.83c-4.16,3.45-13.72,11.62-20.32,11.49c-7.71-0.15-10.8-4.18-11.19-3.35 c-0.38,0.85,4.01,6.62,11.39,6.62c7.48,0,9.99-2.74,14.61-6.39c3.99-3.16,10.75-8.83,10.75-8.83s4.66,0.92,12.33,0.99 c7.99,0.08,11.82-1.09,11.82-1.09s3.81,2.08,6.7,4.67c4.24,3.8,9.45,8.07,14.43,9.51c5.17,1.5,9.64,0.66,12.48-1.37 c2.84-2.03,1.8-1.85-1.04-0.94c-2.84,0.91-9.78,1-14.41-1.57c-4.79-2.66-11.21-9.74-15.67-12.17C74.13,98.64,69,98.59,69,98.59 s10.35-4.77,8.83-15.42s-10.3-11.08-12.94-10.78c-1.53,0.18-4.11,1.34-4.11,1.34s0.34-3.02-2.82-3.32 c-1.71-0.16,1.41,0.91,0.91,2.85C58.29,75.6,55.38,78.2,55.69,79.31z" fill="#865B52"/>
</svg>

<svg viewBox="0 0 128 128" xmlns="http://www.w3.org/2000/svg">
  <defs/>
  <path d="M107.35,61.36 C107.35,84.73 96.54,103.64 64.59,103.36 C29.44,103.06 21.27,87.89 21.07,63.03 C20.88,39.66 34.51,18.24 63.63,18.24 C90.97,18.24 107.35,37.99 107.35,61.36 Z" fill="#B6885A"/>
  <path d="M64.4,44.12 C71.86,43.89 79.94,33.65 88.9,41.84 C97.12,49.35 90.62,56.3 90.83,63.4 C91,69.28 96.8,73.54 92.15,82.47 C88.4,89.67 77.74,94.78 64.96,94.54 C48.52,94.24 38.46,89.37 35.72,81.25 C33.05,73.34 38.79,68.97 38.48,62.89 C38.18,56.8 31.7,47.5 40.13,41.38 C51.59,33.06 56.48,44.36 64.4,44.12 Z" fill="#FFCD88"/>
  <path d="M55.75,57.5 C56.2,61.95 53.74,64.93 50.75,65.23 C47.76,65.53 45.04,62.86 44.67,59.26 C44.3,55.66 45.79,52.15 49.59,51.85 C52.59,51.61 55.32,53.28 55.75,57.5 Z" fill="#393531"/>
  <path d="M82.23,57.99 C82.1,63.11 78.93,64.75 76.1,64.54 C73.27,64.33 71.38,61.16 71.63,57.79 C71.88,54.41 74.14,51.21 77.72,51.55 C80.55,51.82 82.33,54.03 82.23,57.99 Z" fill="#393531"/>
  <path d="M64.1,64.29 C67.98,64.37 69.4,64.37 69.27,66.31 C69.19,67.53 66.68,69.96 64.25,70 C62.2,70.04 59.15,67.98 58.96,66.2 C58.75,64.18 60.29,64.21 64.1,64.29 Z" fill="#393531"/>
  <path d="M104.92,51.82 C104.92,51.82 118.92,51.11 118.72,64.5 C118.52,77.89 106.55,79.62 103.91,79.52 C101.27,79.42 104.92,51.82 104.92,51.82 Z" fill="#B6885A"/>
  <path d="M23.05,51.21 C23.05,51.21 9.25,50.8 8.75,64.3 C8.25,77.8 21.13,79.72 24.37,80.13 C27.61,80.53 23.05,51.21 23.05,51.21 Z" fill="#B6885A"/>
  <path d="M22.23,74.65 C22.59,74.52 21.97,70.01 21.72,65.62 C21.49,61.49 21.63,57.47 21.52,57.3 C21.11,56.69 13.4,57 13.4,65.21 C13.4,73.42 21.42,74.95 22.23,74.65 Z" fill="#FFCD88"/>
  <path d="M105.42,56.89 C105.96,56.53 114.3,56.69 114.04,65.01 C113.81,72.34 106.43,74.6 105.52,73.99 C105.05,73.67 105.54,70.44 105.62,65.92 C105.7,61.73 105.13,57.09 105.42,56.89 Z" fill="#FFCD88"/>
  <path d="M30.76,91.79 C36.67,87.43 39.51,84.64 43.75,78.09 C48,71.5 54.27,70.06 56.9,70.26 C59.54,70.46 59.66,72.62 59.66,72.62 L59.46,75.26 L67.27,73.74 C67.27,73.74 69.5,71.31 73.66,72.12 C77.82,72.93 80.56,74.76 84.72,79.93 C88.88,85.1 91.72,89.16 93.44,90.38 C95.16,91.6 105.77,96.89 109.06,98.9 C113.22,101.44 116.36,106.2 112.92,112.29 C109.84,117.73 99.93,117.06 98.82,116.75 C97.71,116.44 87.96,111.37 84.52,107.72 C81.07,104.07 75.8,101.33 71.43,100.52 C67.06,99.71 59.56,100.01 56.92,100.52 C54.28,101.03 47.59,104.07 44.04,107.01 C40.49,109.95 36.43,114.01 34.2,115.02 C31.97,116.03 24.87,117.86 21.82,117.05 C18.77,116.24 13.62,112.69 13.7,106.9 C13.8,99.9 19.38,98.07 23.24,96.35 C27.1,94.63 28.83,93.21 30.76,91.79 Z" fill="#B6885B"/>
  <path d="M55.69,79.31 C56.14,80.98 61.79,76.11 64.82,75.89 C69.92,75.51 73.67,77.49 74.18,83.88 C74.69,90.27 71.54,95.85 62.31,97.68 C53.08,99.51 50.87,100.06 46.71,103.51 C42.55,106.96 32.99,115.13 26.39,115 C18.68,114.85 15.59,110.82 15.2,111.65 C14.82,112.5 19.21,118.27 26.59,118.27 C34.07,118.27 36.58,115.53 41.2,111.88 C45.19,108.72 51.95,103.05 51.95,103.05 C51.95,103.05 56.61,103.97 64.28,104.04 C72.27,104.12 76.1,102.95 76.1,102.95 C76.1,102.95 79.91,105.03 82.8,107.62 C87.04,111.42 92.25,115.69 97.23,117.13 C102.4,118.63 106.87,117.79 109.71,115.76 C112.55,113.73 111.51,113.91 108.67,114.82 C105.83,115.73 98.89,115.82 94.26,113.25 C89.47,110.59 83.05,103.51 78.59,101.08 C74.13,98.64 69,98.59 69,98.59 C69,98.59 79.35,93.82 77.83,83.17 C76.31,72.52 67.53,72.09 64.89,72.39 C63.36,72.57 60.78,73.73 60.78,73.73 C60.78,73.73 61.12,70.71 57.96,70.41 C56.25,70.25 59.37,71.32 58.87,73.26 C58.29,75.6 55.38,78.2 55.69,79.31 Z" fill="#865B52"/>
</svg>
